X:1
T:Title
%%score 1 { 2 | 3 }
L:1/8
Q:1/4=100
M:3/4
K:A
V:1 treble nm="Grand Piano, Staff 1"
V:2 treble nm="Choir Pad, Come"
V:3 bass 
V:1
 [FA][^EG] [FA] [Fd]3 | [FA][Ac] [=GB]3 [GB]- | [GB] [=Gc]3 [GB][EG] | [=GB][FA]- [FA]3- [FA]/ z/ | %4
w: By~Mrs.~James~G.~Johnson * * *||||
 [FA][^EG] [FA] [Fd]3 | [FA][Ac] [=GB]3 [GB]- | [GB] [=Gc]3 [GA][EG] | [CE]D- D2- D/ z/ z | %8
w: ||||
 [DF][DF] [FB] [FB]3 | [Fd][Fd] [Fc]3 [Fc]- | [Fc] [Fd]3 [FB][DF] | [EG][EA]- [EA]2- [EA]/ z/ z | %12
w: ||||
 [FA][^EG] [FA] [Fd]3 | [FA][Ac] [=GB]3 [GB]- | [GB] [=Gc]3 [GA][GB] | [=Gc][Fd]- [Fd]4- | %16
w: ||||
 [Fd] [FA]3 [=GB][FA] | [=GB] [FA]2 [Fd]2 [Ac]- | [Ac] [GB]3 [Ac][GB] | [Ac] [GB]2 [Ge]2 [Bd]- | %20
w: ||||
 [Bd] [Ac]3 [Ac][AB] | [Ac] [Ad]2 [FA]2 [=GB]- | [GB] [=Gc]3 [GB][EG] | [=GB][FA]- [FA]4- | %24
w: ||||
 [FA] [FA]3 [=GB][FA] | [=GB] [FA]2 [Fd]2 [Ac]- | [Ac] [GB]3 [Ac][GB] | [Ac] [GB]2 [Ge]2 [Bd]- | %28
w: ||||
 [Bd] [Ac]3 [Ac][AB] | [Ac] [Ad]2 [FA]2 [=GB]- | [GB] [=Gc]3 [GA][GB] | [=Gc][Fd]- [Fd]4- | %32
w: ||||
 [Fd]2 z2 z2 |] %33
w: |
V:2
 DD D A,3 | DD D3 D- | D A,3 A,C | CD- D3- D/ z/ | DD D A,3 | DD D3 D- | D[K:bass] A,3 A,A, | %7
 A,F,- F,2- F,/ z/ z | B,B,[K:treble] D D3 | D^A, A,3[K:bass] A,- | A, B,3 DD | DC- C2- C/ z/ z | %12
 DD D A,3 | DD D3 D- | D[K:bass] A,3 A,A, | A,A,- A,4- | A,[K:treble]D z D z D | z D z A, z2 | %18
 z D z D z D | z D z B, z2 | z E3 EE | ED- D2- D/ z/ D- | D[K:bass] A,3 A,A, | %23
 A, A,2[K:treble] D3- | DD z D z D | z D z A, z2 | z D z D z D | z D z B, z2 | z E3 EE | %29
 ED- D2- D/ z/ D- | D[K:bass] A,3 A,A, | A,A,- A,4- | A,2 z2 z2 |] %33
V:3
 D,D, D, D,3 | D,=G, G,3 G,- | G, z z2 z A, | A,D,- D,3- D,/ z/ | D,D, D, D,3 | D,=G, G,3 G,- | %6
 G, z z2 z A,, | A,,D,- D,2- D,/ z/ z | B,,B,, B,, B,,3 | B,,F, F,3 F,- | F, B,,3 B,,B,, | %11
 E,A,,- A,,2- A,,/ z/ z | D,D, D, D,3 | D,=G, G,3 G,- | G, z z2 z A,, | A,,D,- D,4- | %16
 D,D, z D, z D, | z D, z D, z2 | z E, z E, z E, | z E, z E, z2 | z A,3 A,A, | A, F,2 D,2 =G,,- | %22
 G,, A,,3 A,,A,, | A,, D,2 F,2 A,- | A,D, z D, z D, | z D, z D, z2 | z E, z E, z E, | %27
 z E, z E, z2 | z A,3 A,A, | A, F,2 D,2 =G,,- | G,, A,,3 A,,A,, | A,,D,- D,4- | D,2 z2 z2 |] %33

